X:423
T: "Napoleon"
N: Z1103
O: Europa, Mitteleuropa, Deutschland, Rhein
R: Soldaten - Lied
M: 2/4
L: 1/16
K: A
E2 | A2c2B2ee | c3BA2
AB | c2c2d2df | e3dc2
e2 | f2e2d4 | c4z2
cd | e3cf3e | d2dcB2
Bc | d2B2e3d | c2cBA2
A2 | B2f2e2d2 | c4z2

